packages/core/src/svgs/tokens/branded/UOS.svg

<svg width="24" height="24" viewBox="0 0 24 24" fill="none" xmlns="http://www.w3.org/2000/svg">
<path d="M10.1248 11.4373V2.6248H13.8747V11.4373C13.8747 12.1373 13.231 13.2497 12.056 13.2497C11.81 13.258 11.5649 13.2178 11.3344 13.1312C11.1042 13.0444 10.8933 12.9132 10.7138 12.7447C10.5344 12.5763 10.3899 12.3742 10.2888 12.1497C10.1878 11.9254 10.1319 11.6832 10.1248 11.4373Z" fill="#7A51D1"/>
<path d="M2 12.2311V2.6248H5.74999V12.0373C5.74999 14.2685 7.32499 17.6247 11.9999 17.6247C16.225 17.6247 18.2499 14.8936 18.2499 12.0373V2.6248H22V11.7373C22 13.656 21.3499 21.3123 11.9999 21.3748C3.90624 21.431 2 15.2748 2 12.2311Z" fill="#7A51D1"/>
</svg>

<svg xmlns="http://www.w3.org/2000/svg" width="24" height="24" fill="none" viewBox="0 0 24 24">
    <path fill="#7A51D1" d="M10.125 11.437V2.625h3.75v8.812c0 .7-.644 1.813-1.819 1.813a1.87 1.87 0 0 1-1.767-1.1 1.9 1.9 0 0 1-.164-.713"/>
    <path fill="#7A51D1" d="M2 12.231V2.625h3.75v9.412c0 2.231 1.575 5.588 6.25 5.588 4.225 0 6.25-2.731 6.25-5.588V2.625H22v9.112c0 1.919-.65 9.575-10 9.638-8.094.056-10-6.1-10-9.144"/>
</svg>
